src/shared/assets/icons/done.svg

<svg width="15" height="16" viewBox="0 0 15 16" fill="none" xmlns="http://www.w3.org/2000/svg">
<path fill-rule="evenodd" clip-rule="evenodd" d="M13.9499 5.8787C14.3125 6.24133 14.3384 6.81318 14.0276 7.2057L13.9499 7.29292L6.87883 14.364C6.5162 14.7266 5.94436 14.7525 5.55184 14.4417L5.46462 14.364L1.22198 10.1213C0.831454 9.73082 0.831454 9.09765 1.22198 8.70713C1.58461 8.3445 2.15645 8.3186 2.54897 8.62942L2.63619 8.70713L6.17195 12.2418L12.5357 5.8787C12.8983 5.51607 13.4702 5.49017 13.8627 5.801L13.9499 5.8787Z" fill="#1AD3D3"/>
</svg>

<svg xmlns="http://www.w3.org/2000/svg" width="15" height="16" fill="none">
<path fill="current" fill-rule="evenodd" d="M13.95 5.879a1 1 0 0 1 .078 1.327l-.078.087-7.071 7.071a1 1 0 0 1-1.327.078l-.087-.078-4.243-4.243A1 1 0 0 1 2.549 8.63l.087.078 3.536 3.535 6.364-6.363a1 1 0 0 1 1.327-.078l.087.078Z" clip-rule="evenodd"/>
</svg>
